X: 24324
T: Lough Mountain
R: reel
M: 4/4
K: Edorian
|:B3 EGE GA|B e2 d z2 BA|FAA GFD DF|Adf fed BA|
FAB EGE GA|B e2 d z2 BA|ABd efe df|1 edB ABE EE:|2 edB A B2 cd||
|:eee dcB cd|egf ded BG|d3 AAD AB|dfe dBA GB|
dee dcA cd|egf dee eB|ddd d2 e fe|1 dBA FBE EE:|2 dBA F B2- B2||
|:B3 E GEGA|Be-ed z2 BA|FAAG FDDF|Adff edBA|
FABE GEGA|Be-ed z2 BA|ABde fedf|1 edBA BEEE:|2 edBA B2cd||
|:eeed cBcd|egfd edBG|d3 A ADAB|dfed BAGB|
deed cAcd|egfd eeeB|dddd- defe|1 dBAF BEEE:|2 dBAF B4||

